svgs/light/wifi.svg

<svg xmlns="http://www.w3.org/2000/svg" viewBox="0 0 640 512"><!--! Font Awesome Pro 6.3.0 by @fontawesome - https://fontawesome.com License - https://fontawesome.com/license (Commercial License) Copyright 2023 Fonticons, Inc. --><path d="M635.6 165C555.7 80.47 440.7 32 320 32s-235.7 48.47-315.6 133c-6.063 6.438-5.781 16.56 .625 22.62C11.43 193.7 21.53 193.4 27.62 187C101.5 108.8 208.1 64 320 64s218.5 44.84 292.4 123C615.5 190.3 619.8 192 624 192c3.938 0 7.906-1.438 11-4.375C641.4 181.6 641.7 171.4 635.6 165zM320 191.1c-77.75 0-150 30.16-203.4 84.85C110.4 283.1 110.5 293.3 116.8 299.4c6.375 6.219 16.5 6.031 22.63-.25C186.8 250.7 250.9 224 320 224s133.2 26.69 180.6 75.19C503.7 302.4 507.8 304 512 304c4.031 0 8.063-1.5 11.19-4.562c6.313-6.156 6.438-16.31 .25-22.62C470 222.1 397.8 191.1 320 191.1zM319.1 351.1c-35.35 0-64 28.66-64 64.01s28.66 64.01 64 64.01s64-28.66 64-64.01S355.3 351.1 319.1 351.1zM320 448c-17.64 0-32-14.36-32-32S302.4 384 320 384s32 14.36 32 32S337.6 448 320 448z"/></svg>

<svg xmlns="http://www.w3.org/2000/svg" viewBox="0 0 640 512"><!-- Font Awesome Pro 6.0.0-alpha2 by @fontawesome - https://fontawesome.com License - https://fontawesome.com/license (Commercial License) --><path d="M635.63 165C555.723 80.469 440.658 32 320 32S84.277 80.469 4.37 165C-1.693 171.438 -1.412 181.562 4.995 187.625C11.432 193.719 21.526 193.375 27.62 187C101.527 108.844 208.092 64 320 64S538.473 108.844 612.38 187C615.536 190.312 619.755 192 624.005 192C627.943 192 631.912 190.562 635.005 187.625C641.412 181.562 641.693 171.438 635.63 165ZM320 192C242.249 192 169.997 222.125 116.559 276.812C110.371 283.125 110.496 293.281 116.809 299.438C123.184 305.656 133.309 305.469 139.434 299.188C186.81 250.688 250.936 224 320 224S453.19 250.688 500.566 299.188C503.691 302.375 507.847 304 512.003 304C516.035 304 520.066 302.5 523.191 299.438C529.504 293.281 529.629 283.125 523.441 276.813C470.003 222.125 397.751 192 320 192ZM320 352C284.654 352 255.999 380.652 255.999 416S284.654 480 320 480S384.001 451.348 384.001 416S355.346 352 320 352ZM320 448C302.355 448 287.999 433.645 287.999 416S302.355 384 320 384S352.001 398.355 352.001 416S337.645 448 320 448Z"/></svg>
